X:492
T:Reel 492
M:4/4
K:Dmaj
L:1/8
D>F (3FEF GFED|C>A, (3A,B,A, EFGE| (3FGF AD CDAF|| (3DFF ED CB,A,B,:||2DFEC D2z2|AF (3FFF AFBF|cBcd ecBd|A>B (3ABc A>D (3DCD |ECA,B, CDEG|A>F (3FGF A>B (3cBA | (3Bcd Ad B2cd|AFA (3BAG AFEC|DCB,A, B,2B,C|
